src/lib/packages/icons/src/assets/line/folder-music.svg

<svg width="24" height="24" viewBox="0 0 24 24" fill="none" xmlns="http://www.w3.org/2000/svg">
<path d="M18 6.25H13.311L10.531 3.47C10.39 3.329 10.2 3.25 10.001 3.25H6.00098C3.58298 3.25 2.25098 4.582 2.25098 7V17C2.25098 19.418 3.58298 20.75 6.00098 20.75H18.001C20.419 20.75 21.751 19.418 21.751 17V10C21.75 7.582 20.418 6.25 18 6.25ZM20.25 17C20.25 18.577 19.577 19.25 18 19.25H6C4.423 19.25 3.75 18.577 3.75 17V7C3.75 5.423 4.423 4.75 6 4.75H9.68896L12.469 7.53C12.61 7.671 12.8 7.75 12.999 7.75H17.999C19.576 7.75 20.249 8.423 20.249 10V17H20.25ZM15.5669 9.00201C15.2289 8.74701 14.771 8.68399 14.281 8.82199L12.217 9.40201C11.517 9.60601 11.0281 10.255 11.0281 10.98V13.792C10.7771 13.698 10.5069 13.639 10.2229 13.639C8.9519 13.639 7.91699 14.673 7.91699 15.944C7.91699 17.215 8.9509 18.25 10.2229 18.25C11.4939 18.25 12.5281 17.216 12.5281 15.944V13.5C12.5281 13.37 12.5969 13.285 12.6299 13.276L15.0459 12.601C15.6769 12.426 16.084 11.914 16.084 11.296V10.185C16.083 9.53 15.8029 9.18001 15.5669 9.00201ZM10.2229 16.75C9.7789 16.75 9.41699 16.389 9.41699 15.944C9.41699 15.5 9.7779 15.139 10.2229 15.139C10.6659 15.139 11.0281 15.5 11.0281 15.944C11.0271 16.389 10.6659 16.75 10.2229 16.75ZM14.583 11.172L12.5271 11.746V10.979C12.5271 10.916 12.5709 10.86 12.6299 10.844L14.583 10.304V11.172Z" fill="currentColor"/>
</svg>

<svg xmlns="http://www.w3.org/2000/svg" width="24" height="24" fill="none"><path fill="currentColor" d="M18 6.25h-4.689l-2.78-2.78a.749.749 0 0 0-.53-.22h-4c-2.418 0-3.75 1.332-3.75 3.75v10c0 2.418 1.332 3.75 3.75 3.75h12c2.418 0 3.75-1.332 3.75-3.75v-7C21.75 7.582 20.418 6.25 18 6.25ZM20.25 17c0 1.577-.673 2.25-2.25 2.25H6c-1.577 0-2.25-.673-2.25-2.25V7c0-1.577.673-2.25 2.25-2.25h3.689l2.78 2.78c.141.141.331.22.53.22h5c1.577 0 2.25.673 2.25 2.25v7h.001Zm-4.683-7.998c-.338-.255-.796-.318-1.286-.18l-2.064.58c-.7.204-1.189.853-1.189 1.578v2.812a2.291 2.291 0 0 0-.805-.153 2.308 2.308 0 0 0-2.306 2.305 2.309 2.309 0 0 0 2.306 2.306 2.308 2.308 0 0 0 2.305-2.306V13.5c0-.13.069-.215.102-.224l2.416-.675c.63-.175 1.038-.687 1.038-1.305v-1.111c-.001-.655-.281-1.005-.517-1.183Zm-5.344 7.748a.807.807 0 0 1 0-1.611.807.807 0 0 1 0 1.611Zm4.36-5.578-2.056.574v-.767c0-.063.044-.119.103-.135l1.953-.54v.868Z"/></svg>
